icons/svg/text-strikethrough.svg

<svg width="24" height="24" viewBox="0 0 24 24" fill="none" xmlns="http://www.w3.org/2000/svg">
<path d="M17.0589 8.11349C17.0589 8.11349 16.3491 4.75 11.1978 4.75C9.27489 4.75 6.7774 6.35139 6.7774 8.58764C6.7774 9.0809 6.86546 9.50801 7.03694 9.88C7.16582 10.1596 7.34183 10.408 7.56301 10.63M7.03694 16.995C7.03694 16.995 8.38184 20 12.3635 20C14.5805 20 17.2226 18.9224 17.2226 16.4563C17.2226 14.8848 16.3055 13.8266 14.815 13.125M4.75 13.125H14.815M19.25 13.125H14.815" stroke="currentColor" stroke-width="1.5" stroke-linecap="round"/>
</svg>

<svg xmlns="http://www.w3.org/2000/svg" width="24" height="24" fill="none" viewBox="0 0 24 24"><path stroke="currentColor" stroke-linecap="round" stroke-width="1.5" d="M17.059 8.113s-.71-3.363-5.861-3.363c-1.923 0-4.42 1.601-4.42 3.838 0 .493.087.92.259 1.292q.194.418.526.75m-.526 6.365S8.382 20 12.364 20c2.217 0 4.859-1.078 4.859-3.544 0-1.571-.918-2.63-2.408-3.331m-10.065 0h10.065m4.435 0h-4.435"/></svg>
